!! 00000] TT[00
!! NN
!!!OTL: Tian wuwu
!!!ARE: Asia, China,Taiwan
!! Ethnic Group: Han
!! IV, 635
!!!SCT: C0450
!!!YEM: Copyright 1995, estate of Helmut Schaffrath.
**kern
*ICvox
*Ivox
*M2/4
*k[]
*C:
{8e
8d
4e
=1
8e
8A
4c
=2
8d
16e
16e
8c
8A
=3
8c
16d
16e
8d
8G
=4
2A}
=5
{8G
8E
4G
=6
8c
8G
4A
=7
8A
8A
8c
16d
16e
=8
8d
8d
4d}
=9
{8.c
16A
8d
8G
=10
8B
4G
8B
=11
[2A
=12
2A]}
=13
{8a
8g
4a
=14
8a
8d
[4e
=15
2e]}
=16
{8g
16a
16a
8g
8d
=17
8e
16g
16a
8g
8d
=18
[2e
=19
2e]}
=20
{8c
8A
4c
=21
8c
8G
4A
=22
8A
8A
8c
16d
16e
=23
8d
8d
4d}
==
!!!AGN: Kinderlied
!!!ONB: ESAC (Essen Associative Code) Database: CHINA_062
!!!AMT: simple duple
!!!AIN: vox
!!!EED: Helmut Schaffrath
!!!EEV: 1.0
*-
!!!ONB: Tied note syntax fixed by Craig Sapp, 2004/05/03/
